X: 21091
M: 3/4
L: 1/8
K: G
|:\
|:\
(d2 B2) e2 | (c2 A2) d2 | (B2 G2) d2 | B2 A2 z2 |\
(dc)Bded | (cB)Acdc | BAGAB^c | d^ced=cA |


